X:1
T:Leave It for Tomorrow
T:Leave It for Tomorrow
T:Angela K. Zehr, harm. & arr. by N. E. M.
T:Jessie Anne Lee, 2012, alt. by A. K. Z.
T:Public Domain Courtesy of the Cyber Hymnal™
T:Public Domain Courtesy of the Cyber Hymnal™
C:Angela K. Zehr, harm. & arr. by N. E. M.
Z:Public Domain
Z:Courtesy of the Cyber Hymnal™
%%score ( 1 2 ) ( 3 4 )
L:1/8
Q:1/4=90
M:4/4
K:E
V:1 treble 
V:2 treble 
V:3 bass 
V:4 bass 
V:1
 [B,E] | [EG][EG][EG][EG] [EA][EG][DF][CE] | [DF]2 [CE]2 C3 [CE] | %3
w: 1.~Just|leave it for to- mor- row— ’cause it’s|not to- day, And|
w: 2.~If|you would take to- mor- row when to-|day’s not through, A|
w: 3.~When|we take more our- selves than what we|ev- er could, It|
w: 4.~If|you hold on to- mor- row, it will|weigh you down. You|
 [DF][DF][DF][DF] [EG][DF][CE][B,D] | [CE]2 [CE]2 [EG]3 [FA] | [GB][GB][GB][GB] [FA][EG][CE][CE] | %6
w: trou- bles from the day be- fore have|passed a- way! So|take the day God’s giv- en you, and|
w: knot comes in your sto- mach, and your|breath’s short, too, So|that you feel so wea- ry and can’t|
w: can’t be joy- ful liv- ing, peace- a-|ble or good. God|said His yoke is ea- sy, and His|
w: can- not car- ry it be- cause to-|day’s ar- ound. A-|lone you will be lone- ly and the|
 [DF]2 [EG]2 [EA]3 [EA] | [EA][FA][EG][DF] [DG][DF]E[DF] | ([EG][DF]) ([EG][FA]) [GB]3 || %9
w: that’s e- nough; To-|mor- row may not come, and yes- ter-|day * was * tough.|
w: take to- day, So|drop to- mor- row and let Je- sus|lead * the * way.|
w: bur- den’s light. So|walk to- day with Je- sus, and you’ll|win * the * fight!|
w: way seems long, But|Je- sus gives you joy, and you’ll walk|with * a * song!|
"^Refrain" [B,E] | [EA][EA][EG][FA] [GB][FA]E[FA] | [EG]2 [FA]2 [GB]3 [B,E] | %12
w: |||
w: |||
w: |||
w: |||
 [B,B][CB][DB][EB] [Fc][GB][CE][CE] | [EA]2 [EB]2 [Ec]3 [Ec] | [Ge][Ge][Fd][Ec] [GB][GB][EG][EG] | %15
w: |||
w: |||
w: |||
w: |||
 [EA]2 [EB]2 [Ec]3 [FA] | [EG][EG][FG][EA] [DG][DF]E[DF] | [EG]2 [DF]2 [B,E]3 |] %18
w: |||
w: |||
w: |||
w: |||
V:2
 x | x8 | x4 C3 x | x8 | x8 | x8 | x8 | x6 E x | x7 || x | x6 E x | x8 | x8 | x8 | x8 | x8 | %16
 x6 E x | x7 |] %18
V:3
 [E,G,] | E,[E,G,][E,B,][E,B,] [E,C][E,B,][E,A,][E,G,] | [A,,A,]2 [A,,A,]2 [A,,A,]3 [A,,A,] | %3
w: ~|~ ~ ~ ~ ~ ~ ~ ~|~ ~ ~ ~|
 [B,,A,][B,,A,][B,,A,][B,,A,] [B,,B,][B,,B,][B,,B,][B,,B,] | [C,A,]2 [A,,C]2 [E,B,]3 [E,B,] | %5
w: ~ ~ ~ ~ ~ ~ ~ ~|~ ~ ~ ~|
 [E,E][E,E][B,,D][B,,D] [C,C][B,,B,][A,,A,][C,A,] | [B,,A,]2 [B,,B,]2 [A,,C]3 [A,,C] | %7
w: ~ ~ ~ ~ ~ ~ ~ ~|~ ~ ~ ~|
 [A,,C][A,,C][B,,B,][B,,B,] [B,,B,][B,,B,][B,,B,][B,,B,] | [B,,B,]2 [B,,B,]2 [E,E]3 || [E,G,] | %10
w: ~ ~ ~ ~ ~ ~ ~ ~|~ ~ ~|So|
 [C,C][C,C][C,C][C,C] [B,,D][B,,C][A,,C][A,,C] | [B,,B,]2 [B,,B,]2 [E,E]3 [E,G,] | %12
w: leave to- mor- row and to- day on|God’s door- mat, Where|
 [E,G,][E,G,][E,G,][E,G,] [F,A,][E,A,][E,A,][C,A,] | [A,,A,]2 [B,,G,]2 [A,,A,]3 [A,,A,] | %14
w: ev- ’ry- thing is bet- ter— leave it|just like that! Don’t|
 [E,B,][E,B,][E,B,][E,B,] [E,E][E,E][E,C][E,C] | [F,C]2 [G,B,]2 A,3 F, | %16
w: pick back up to- mor- row or a-|no- ther woe, To-|
 E,[E,G,][D,B,][C,C] [B,,B,][B,,B,][B,,B,][B,,B,] | [C,C]2 [B,,B,]2 [E,G,]3 |] %18
w: day is where He leads us, and with|us will go.|
V:4
 x | E, x7 | x8 | x8 | x8 | x8 | x8 | x8 | x7 || x | x8 | x8 | x8 | x8 | x8 | x4 A,3 F, | E, x7 | %17
 x7 |] %18

